build/images/basket-green.svg

<svg width="119" height="98" viewBox="0 0 119 98" fill="none" xmlns="http://www.w3.org/2000/svg">
<path d="M3.52885 55.9643H7.54508L12.0866 83.2582C13.4924 91.7055 20.7183 97.8367 29.2682 97.8367H89.4999C98.0443 97.8367 105.53 91.5694 106.913 83.2582L111.455 55.9643H115.471C117.395 55.9643 118.955 54.402 118.955 52.475V38.5175C118.955 36.5904 117.395 35.0281 115.471 35.0281H89.342L69.4548 1.82863C68.465 0.176061 66.3253 -0.360138 64.6752 0.631773C63.0253 1.62322 62.4905 3.76662 63.4803 5.41919L81.2169 35.0283H37.7835L55.5201 5.41919C56.5101 3.76662 55.975 1.62345 54.3252 0.631773C52.6746 -0.359906 50.5354 0.176294 49.5456 1.82863L29.6584 35.0281H3.52885C1.60493 35.0281 0.045166 36.5904 0.045166 38.5175V52.475C0.045166 54.4023 1.60493 55.9643 3.52885 55.9643ZM100.041 82.1109C99.2113 87.0976 94.6795 90.8582 89.4999 90.8582H29.2682C24.1381 90.8582 19.8025 87.1795 18.959 82.1111L14.6086 55.9643H104.392L100.041 82.1109ZM7.01254 42.0069H111.988V48.9856H7.01254V42.0069Z" fill="#61DB45"/>
<path d="M33.9651 80.6797C34.1235 82.5838 35.7913 84.0281 37.7261 83.8674C39.6433 83.7074 41.0681 82.0208 40.9083 80.1003L39.7471 66.1428C39.5873 64.2223 37.9082 62.7967 35.9861 62.9552C34.0689 63.1152 32.6441 64.8017 32.8039 66.7223L33.9651 80.6797Z" fill="#61DB45"/>
<path d="M81.274 83.8674C83.2114 84.0284 84.8769 82.5815 85.035 80.6798L86.1962 66.7223C86.356 64.802 84.9312 63.1152 83.014 62.9552C81.0952 62.7951 79.4126 64.222 79.253 66.1428L78.0918 80.1003C77.932 82.0206 79.3568 83.7074 81.274 83.8674Z" fill="#61DB45"/>
<path d="M59.5001 83.8793C61.424 83.8793 62.9837 82.317 62.9837 80.3899V66.4324C62.9837 64.5054 61.424 62.9431 59.5001 62.9431C57.5761 62.9431 56.0164 64.5054 56.0164 66.4324V80.3899C56.0164 82.3172 57.5761 83.8793 59.5001 83.8793Z" fill="#61DB45"/>
</svg>

<svg width="119" height="98" fill="none" xmlns="http://www.w3.org/2000/svg"><path d="M3.529 55.964h4.016l4.542 27.294c1.405 8.448 8.631 14.579 17.181 14.579H89.5c8.544 0 16.03-6.268 17.413-14.579l4.542-27.294h4.016a3.487 3.487 0 0 0 3.484-3.489V38.517a3.487 3.487 0 0 0-3.484-3.489H89.342l-19.887-33.2a3.48 3.48 0 0 0-4.78-1.196 3.493 3.493 0 0 0-1.195 4.787l17.737 29.61H37.783L55.52 5.418A3.493 3.493 0 0 0 54.325.632a3.48 3.48 0 0 0-4.78 1.197l-19.887 33.2H3.528a3.487 3.487 0 0 0-3.483 3.488v13.958c0 1.927 1.56 3.49 3.484 3.49zm96.512 26.147c-.83 4.987-5.361 8.747-10.541 8.747H29.268c-5.13 0-9.466-3.678-10.309-8.747l-4.35-26.147h89.783l-4.351 26.147zM7.013 42.007h104.975v6.979H7.013v-6.98z" fill="#61DB45"/><path d="M33.965 80.68a3.485 3.485 0 0 0 3.761 3.187 3.488 3.488 0 0 0 3.182-3.767l-1.16-13.957a3.484 3.484 0 1 0-6.944.58l1.161 13.957zm47.309 3.187a3.485 3.485 0 0 0 3.761-3.187l1.161-13.958a3.484 3.484 0 0 0-6.943-.58L78.092 80.1a3.488 3.488 0 0 0 3.182 3.767zM59.5 83.88a3.487 3.487 0 0 0 3.484-3.49V66.432a3.487 3.487 0 0 0-3.484-3.489 3.487 3.487 0 0 0-3.484 3.49V80.39c0 1.927 1.56 3.49 3.484 3.49z" fill="#61DB45"/></svg>
